X: 10936
T: Drummer, The
R: reel
M: 4/4
K: Adorian
|:E|"Am"ABcA "Em"E2 (3DEF|"G"GABc dBGB|"Am"cA"G"BG "Em"E2 Eg|"Am"ec"G"dB "Am"A2 A:|
|:B|"C"c2 ce "G"d2 de|"C"c2 ce "G"dBGB|"C"c2 ce "G"d^cdg|"Am"ec"G"dB "Am"A2 A:|

